view/frontend/web/svg/flags/au.svg

<svg width="24" height="24" viewbox="0 0 20 15" viewBox="0 0 20 15" fill="none" xmlns="http://www.w3.org/2000/svg">
<g clip-path="url(#clip0_270_61026)">
<rect width="20" height="15" fill="white"/>
<path fill-rule="evenodd" clip-rule="evenodd" d="M0 0H20V15H0V0Z" fill="#2E42A5"/>
<g clip-path="url(#clip1_270_61026)">
<rect width="11" height="9" fill="#2E42A5"/>
<path d="M-1.25267 8.12488L1.22293 9.21063L11.3062 1.18046L12.612 -0.432999L9.9647 -0.795888L5.85199 2.66454L2.54167 4.99607L-1.25267 8.12488Z" fill="#F7FCFF"/>
<path d="M-0.913754 8.88561L0.347447 9.51569L12.1431 -0.582886H10.3722L-0.913754 8.88561Z" fill="#F50100"/>
<path d="M12.5027 8.12487L10.3056 9.52057L-0.0561752 1.18044L-1.36199 -0.433015L1.2853 -0.795905L5.39801 2.66453L8.70833 4.99605L12.5027 8.12487Z" fill="#F7FCFF"/>
<path d="M12.4182 8.67082L11.157 9.3009L6.13429 4.97718L4.64517 4.4941L-1.48764 -0.427482H0.283231L6.4126 4.37728L8.04069 4.95655L12.4182 8.67082Z" fill="#F50100"/>
<path fill-rule="evenodd" clip-rule="evenodd" d="M6 0H5V4H0V5H5V9H6V5H11V4H6V0Z" fill="#F50100"/>
<path fill-rule="evenodd" clip-rule="evenodd" d="M4.0625 0H6.9375V3.0625L11 3V5.875L6.9375 5.9375V9H4.0625V5.9375L0 5.875V3L4.0625 3.0625V0ZM5 4H0V5H5V9H6V5H11V4H6V0H5V4Z" fill="#F7FCFF"/>
</g>
<g clip-path="url(#clip2_270_61026)">
<path d="M5.92 12.2784L5.09996 13.0362L5.18117 11.9226L4.07739 11.7539L4.99869 11.1231L4.44234 10.155L5.50998 10.4819L5.92 9.44336L6.33002 10.4819L7.39766 10.155L6.84131 11.1231L7.76261 11.7539L6.65883 11.9226L6.74004 13.0362L5.92 12.2784Z" fill="#F7FCFF"/>
<path d="M13.24 8.29668L12.6933 8.8019L12.7474 8.05948L12.0116 7.94705L12.6258 7.52649L12.2549 6.88108L12.9667 7.09907L13.24 6.40668L13.5133 7.09907L14.2251 6.88108L13.8542 7.52649L14.4684 7.94705L13.7326 8.05948L13.7867 8.8019L13.24 8.29668Z" fill="#F7FCFF"/>
<path d="M14.52 2.9633L13.9733 3.46852L14.0274 2.7261L13.2916 2.61368L13.9058 2.19311L13.5349 1.54771L14.2467 1.76569L14.52 1.0733L14.7933 1.76569L15.5051 1.54771L15.1342 2.19311L15.7484 2.61368L15.0126 2.7261L15.0667 3.46852L14.52 2.9633Z" fill="#F7FCFF"/>
<path d="M17.72 5.62999L17.1733 6.13521L17.2274 5.39279L16.4916 5.28037L17.1058 4.8598L16.7349 4.21439L17.4467 4.43238L17.72 3.73999L17.9933 4.43238L18.7051 4.21439L18.3342 4.8598L18.9484 5.28037L18.2126 5.39279L18.2667 6.13521L17.72 5.62999Z" fill="#F7FCFF"/>
<path d="M15.16 13.2967L14.6133 13.8019L14.6674 13.0595L13.9316 12.9471L14.5458 12.5265L14.1749 11.8811L14.8867 12.0991L15.16 11.4067L15.4333 12.0991L16.1451 11.8811L15.7742 12.5265L16.3884 12.9471L15.6526 13.0595L15.7067 13.8019L15.16 13.2967Z" fill="#F7FCFF"/>
<path d="M17.4 9.13918L16.8445 9.4312L16.9506 8.81269L16.5013 8.37466L17.1223 8.28442L17.4 7.72168L17.6777 8.28442L18.2988 8.37466L17.8494 8.81269L17.9555 9.4312L17.4 9.13918Z" fill="#F7FCFF"/>
</g>
</g>
<defs>
<clipPath id="clip0_270_61026">
<rect width="20" height="15" fill="white"/>
</clipPath>
<clipPath id="clip1_270_61026">
<rect width="11" height="9" fill="white"/>
</clipPath>
<clipPath id="clip2_270_61026">
<rect width="15" height="13" fill="white" transform="translate(4 1)"/>
</clipPath>
</defs>
</svg>

<svg width="24" height="24" viewbox="0 0 20 15" fill="none" xmlns="http://www.w3.org/2000/svg">
  <mask id="a" maskUnits="userSpaceOnUse" x="0" y="0" width="20" height="15">
    <path fill="#fff" d="M0 0h20v15H0z"/>
  </mask>
  <g mask="url(#a)">
    <path fill-rule="evenodd" clip-rule="evenodd" d="M0 0h20v15H0V0z" fill="#2E42A5"/>
    <path fill="#2E42A5" d="M0 0h11v9H0z"/>
    <mask id="b" maskUnits="userSpaceOnUse" x="0" y="0" width="11" height="9">
      <path fill="#fff" d="M0 0h11v9H0z"/>
    </mask>
    <g mask="url(#b)">
      <path d="M-1.253 8.125L1.223 9.21l10.083-8.03 1.306-1.614-2.647-.363-4.113 3.46-3.31 2.332-3.795 3.129z" fill="#F7FCFF"/>
      <path d="M-.914 8.886l1.261.63L12.143-.583h-1.77L-.915 8.886z" fill="#F50100"/>
      <path d="M12.503 8.125L10.306 9.52-.056 1.18-1.362-.434l2.647-.363 4.113 3.46 3.31 2.332 3.795 3.129z" fill="#F7FCFF"/>
      <path d="M12.418 8.67l-1.261.63-5.023-4.323-1.489-.483-6.133-4.921H.283l6.13 4.804 1.628.58 4.377 3.714z" fill="#F50100"/>
      <mask id="c" maskUnits="userSpaceOnUse" x="-1" y="-1" width="13" height="11" fill="#000">
        <path fill="#fff" d="M-1-1h13v11H-1z"/>
        <path fill-rule="evenodd" clip-rule="evenodd" d="M6 0H5v4H0v1h5v4h1V5h5V4H6V0z"/>
      </mask>
      <path fill-rule="evenodd" clip-rule="evenodd" d="M6 0H5v4H0v1h5v4h1V5h5V4H6V0z" fill="#F50100"/>
      <path d="M5 0v-.938h-.938V0H5zm1 0h.938v-.938H6V0zM5 4v.938h.938V4H5zM0 4v-.938h-.938V4H0zm0 1h-.938v.938H0V5zm5 0h.938v-.938H5V5zm0 4h-.938v.938H5V9zm1 0v.938h.938V9H6zm0-4v-.938h-.938V5H6zm5 0v.938h.938V5H11zm0-1h.938v-.938H11V4zM6 4h-.938v.938H6V4zM5 .937h1V-.938H5V.938zM5.938 4V0H4.063v4h1.875zM0 4.938h5V3.063H0v1.874zM.938 5V4H-.938v1H.938zM5 4.062H0v1.875h5V4.063zM5.938 9V5H4.063v4h1.875zM6 8.062H5v1.876h1V8.062zM5.062 5v4h1.875V5H5.063zM11 4.062H6v1.875h5V4.063zM10.062 4v1h1.876V4h-1.876zM6 4.938h5V3.063H6v1.874zM5.062 0v4h1.875V0H5.063z" fill="#F7FCFF" mask="url(#c)"/>
    </g>
  </g>
  <path d="M5.92 12.278l-.82.758.081-1.113-1.104-.17.922-.63-.557-.968 1.068.327.41-1.039.41 1.039 1.068-.327-.557.968.922.63-1.104.17.081 1.113-.82-.758zm7.32-3.981l-.547.505.054-.743-.735-.112.614-.42-.371-.646.712.218.273-.692.273.692.712-.218-.37.645.613.421-.735.112.054.743-.547-.505zm1.28-5.334l-.547.506.054-.743-.735-.112.614-.42-.371-.646.712.218.273-.693.273.693.712-.218-.37.645.613.42-.735.113.054.743-.547-.506zm3.2 2.667l-.547.505.054-.742-.735-.113.614-.42-.371-.646.712.218.273-.692.273.692.712-.218-.37.646.613.42-.735.113.054.742-.547-.505zm-2.56 7.667l-.547.505.054-.742-.735-.113.614-.42-.371-.646.712.218.273-.692.273.692.712-.218-.37.646.613.42-.735.113.054.742-.547-.505zM17.4 9.14l-.555.291.106-.618-.45-.438.621-.09.278-.563.278.562.62.09-.449.439.107.618-.556-.292z" fill="#F7FCFF"/>
</svg>
